X: 13291
T: Flagon, The
R: reel
M: 4/4
K: Gmajor
BG G/G/G BG dc|BG G/G/G BG gd|BG G/G/G BG dB|Ac =Fc AF cA:|
g2 gd GB/c/ dB|g2 gd gb af|g2 gd GB/c/ dB|cg Bg A=F cA:|

